build/img/step2.svg

<svg width="132" height="143" viewBox="0 0 132 143" fill="none" xmlns="http://www.w3.org/2000/svg">
<path fill-rule="evenodd" clip-rule="evenodd" d="M65.7211 3C33.7825 3 7.39786 26.416 3.12061 56.8086H0.0917969C4.38967 24.7311 32.1477 0 65.7211 0C85.4261 0 103.128 8.51931 115.259 22.0431H111.256V22.1528C99.7598 10.3474 83.6118 3 65.7211 3ZM118.781 31.5246C123.408 38.5748 126.636 46.6044 128.078 55.2284H131.119C129.755 46.6612 126.713 38.6469 122.337 31.5246H118.781ZM0.323322 75.7716H3.36384C4.00181 79.5863 4.98918 83.2846 6.29242 86.8334H3.10458C1.8663 83.2751 0.929156 79.5779 0.323322 75.7716ZM8.16473 97.8951C19.5627 117.673 41.075 131 65.7211 131C97.6208 131 124.271 108.674 130.535 78.9321H127.465C121.25 106.985 95.978 128 65.7211 128C42.7995 128 22.7385 115.94 11.6571 97.8951H8.16473Z" fill="#F7D473"/>
<g clip-path="url(#clip0_335_4)">
<path d="M45.4578 49.939H59.5073V52.1268H45.4578V49.939ZM45.4578 54.5627H55.5005V56.6886H45.4578V54.5627ZM45.4578 61.5622H59.5073V63.6881H45.4578V61.5622ZM45.4578 66.25H55.5005V68.4378H45.4578V66.25ZM45.4578 73.2495H59.5073V75.4374H45.4578V73.2495ZM45.4578 77.9992H53.4167V80.1871H45.4578V77.9992ZM100.372 89.9985L89.7945 77.4992L87.8184 79.7491L83.5979 74.8114C84.5597 73.4782 85.3256 71.9676 85.8954 70.2797C86.4652 68.5918 86.7501 66.7899 86.7501 64.874C86.7501 62.9582 86.4652 61.1456 85.8954 59.4364C85.3256 57.7272 84.533 56.2066 83.5176 54.8747C82.5022 53.5427 81.3005 52.4175 79.9125 51.4989C78.5233 50.6243 77.0276 50.0616 75.4253 49.811V33.5H45.9911L37.4971 43.4374V96.6221H75.4253V83.7469H73.5552V94.4342H39.3672V45.1253H47.3261V35.6879H73.4475V49.813C71.6663 49.8543 70.0105 50.271 68.48 51.0629C66.913 51.8962 65.5597 52.9901 64.4201 54.3447C63.2805 55.6993 62.3723 57.2932 61.6954 59.1264C61.0184 60.9596 60.68 62.9182 60.68 65.002C60.68 67.0859 61.0184 69.0444 61.6954 70.8777C62.3723 72.7109 63.2982 74.3148 64.4731 75.6894C65.6481 77.0639 67.0372 78.1472 68.6407 78.9392C70.2076 79.7724 71.8817 80.1891 73.6629 80.1891C75.3016 80.1891 76.8418 79.8558 78.2834 79.1891C79.725 78.5225 81.0162 77.6059 82.1569 76.4393L86.4304 81.439L84.4543 83.7509L95.1381 96.2501C95.5301 96.6674 95.9398 96.98 96.3672 97.188C96.7945 97.396 97.2578 97.5 97.7569 97.5C98.256 97.5 98.737 97.3853 99.1996 97.156C99.6623 96.9267 100.054 96.6247 100.376 96.2501C101.123 95.3328 101.497 94.2702 101.497 93.0623C101.497 91.8544 101.123 90.8338 100.376 90.0005L100.372 89.9985ZM45.4578 42.8134H40.6492L45.4578 37.0638V42.8134ZM73.7706 77.8752C72.2389 77.8752 70.8144 77.5212 69.4971 76.8133C68.1432 76.1467 66.9592 75.2194 65.9449 74.0315C64.9307 72.8435 64.1381 71.479 63.5672 69.9377C62.962 68.3538 62.6595 66.6666 62.6595 64.876C62.6595 63.0855 62.962 61.3983 63.5672 59.8144C64.137 58.2305 64.9296 56.8552 65.9449 55.6886C66.9603 54.522 68.1444 53.5847 69.4971 52.8768C70.8144 52.2102 72.2389 51.8769 73.7706 51.8769C75.3022 51.8769 76.7444 52.2102 78.0971 52.8768C79.4509 53.5847 80.6264 54.522 81.6236 55.6886C82.6207 56.8552 83.4219 58.2305 84.027 59.8144C84.5968 61.3983 84.8817 63.0855 84.8817 64.876C84.8817 66.6666 84.5968 68.3538 84.027 69.9377C83.4219 71.479 82.6207 72.8435 81.6236 74.0315C80.6264 75.2194 79.4509 76.1467 78.0971 76.8133C76.7432 77.5212 75.3011 77.8752 73.7706 77.8752ZM99.0902 94.5602C98.9125 94.7682 98.6988 94.9242 98.4492 95.0282C98.1996 95.1321 97.9683 95.1841 97.7552 95.1841C97.4703 95.1841 97.2207 95.1321 97.0065 95.0282C96.7922 94.9242 96.6139 94.7682 96.4714 94.5602L87.0697 83.6229L89.7945 80.4351L99.1962 91.3724C99.5164 91.8724 99.668 92.435 99.6509 93.0603C99.6338 93.6856 99.4469 94.1855 99.0902 94.5602ZM73.9842 59.1264H73.5569C71.2059 59.2104 69.2384 60.0543 67.6543 61.6582C66.0703 63.2621 65.2424 64.1268 65.1706 64.2521L66.6133 65.628L67.3347 64.846C67.3347 64.846 67.9666 64.2521 69.2304 63.0642C69.1586 63.3148 69.105 63.5961 69.0697 63.9081C69.0344 64.2201 69.0167 64.5427 69.0167 64.876C69.0167 66.4599 69.4885 67.8139 70.4321 68.9378C71.3757 70.0617 72.5244 70.6243 73.8783 70.6257C75.2674 70.6257 76.4338 70.063 77.3774 68.9378C78.321 67.8125 78.7928 66.4586 78.7928 64.876C78.7928 64.5427 78.7751 64.2407 78.7398 63.9701C78.7045 63.6994 78.6509 63.3975 78.5791 63.0642C79.3267 63.6481 79.9501 64.2107 80.4492 64.752C80.9483 65.2933 81.1979 65.5853 81.1979 65.628L82.5877 64.2521C82.4452 64.1268 81.5637 63.2728 79.9432 61.6902C78.3227 60.1077 76.3375 59.2537 73.9877 59.1284L73.9842 59.1264ZM73.7706 68.5618C72.9159 68.5618 72.1945 68.2078 71.6065 67.4999C71.0184 66.7919 70.7244 65.9586 70.7244 65C70.7244 64.0414 71.0093 63.2188 71.5791 62.5322C72.1489 61.8456 72.8435 61.4809 73.6629 61.4383H74.0902C74.9096 61.4796 75.6042 61.8442 76.174 62.5322C76.7438 63.2201 77.0287 64.0428 77.0287 65C76.9216 65.9586 76.5563 66.7919 75.933 67.4999C75.3096 68.2078 74.5899 68.5618 73.7706 68.5618Z" fill="white"/>
</g>
<circle cx="96.7227" cy="123.477" r="19" fill="#F7D473"/>
<path d="M93.49 129V127.782L97.382 124.086C97.7087 123.778 97.9513 123.507 98.11 123.274C98.2687 123.041 98.3713 122.826 98.418 122.63C98.474 122.425 98.502 122.233 98.502 122.056C98.502 121.608 98.348 121.263 98.04 121.02C97.732 120.768 97.2793 120.642 96.682 120.642C96.206 120.642 95.772 120.726 95.38 120.894C94.9973 121.062 94.666 121.319 94.386 121.664L93.112 120.684C93.4947 120.171 94.008 119.774 94.652 119.494C95.3053 119.205 96.0333 119.06 96.836 119.06C97.5453 119.06 98.1613 119.177 98.684 119.41C99.216 119.634 99.622 119.956 99.902 120.376C100.191 120.796 100.336 121.295 100.336 121.874C100.336 122.191 100.294 122.509 100.21 122.826C100.126 123.134 99.9673 123.461 99.734 123.806C99.5007 124.151 99.16 124.539 98.712 124.968L95.366 128.146L94.988 127.46H100.714V129H93.49Z" fill="#111111"/>
<defs>
<clipPath id="clip0_335_4">
<rect width="64" height="64" fill="white" transform="translate(37.4971 33.5)"/>
</clipPath>
</defs>
</svg>

<svg width="132" height="143" fill="none" xmlns="http://www.w3.org/2000/svg"><path fill-rule="evenodd" clip-rule="evenodd" d="M65.721 3C33.782 3 7.398 26.416 3.121 56.809H.09C4.39 24.73 32.149 0 65.722 0c19.705 0 37.407 8.52 49.538 22.043h-4.003v.11C99.76 10.347 83.612 3 65.721 3Zm53.06 28.525a61.71 61.71 0 0 1 9.297 23.703h3.041a64.652 64.652 0 0 0-8.782-23.703h-3.556ZM.323 75.772h3.04a61.505 61.505 0 0 0 2.93 11.061H3.104A64.482 64.482 0 0 1 .323 75.772Zm7.842 22.123C19.563 117.673 41.075 131 65.72 131c31.9 0 58.55-22.326 64.814-52.068h-3.07C121.25 106.985 95.978 128 65.721 128c-22.922 0-42.983-12.06-54.064-30.105H8.165Z" fill="#F7D473"/><g clip-path="url(#a)"><path d="M45.458 49.939h14.05v2.188h-14.05v-2.188Zm0 4.624H55.5v2.126H45.458v-2.126Zm0 7h14.05v2.125h-14.05v-2.126Zm0 4.687H55.5v2.188H45.458V66.25Zm0 7h14.05v2.187h-14.05V73.25Zm0 4.75h7.959v2.187h-7.96V78Zm54.914 11.999-10.578-12.5-1.976 2.25-4.22-4.938c.962-1.333 1.728-2.843 2.297-4.531.57-1.688.855-3.49.855-5.406 0-1.916-.285-3.728-.855-5.438-.57-1.709-1.362-3.23-2.377-4.561a14.717 14.717 0 0 0-3.606-3.376 11.748 11.748 0 0 0-4.487-1.688V33.5H45.991l-8.494 9.937v53.185h37.928V83.747h-1.87v10.687H39.367V45.125h7.96v-9.437h26.12v14.125c-1.78.041-3.437.458-4.967 1.25a13.603 13.603 0 0 0-4.06 3.282c-1.14 1.354-2.048 2.948-2.725 4.781-.677 1.834-1.015 3.792-1.015 5.876 0 2.084.338 4.042 1.015 5.876.677 1.833 1.603 3.437 2.778 4.811a13.015 13.015 0 0 0 4.168 3.25 10.54 10.54 0 0 0 5.022 1.25c1.639 0 3.179-.333 4.62-1a13.035 13.035 0 0 0 3.874-2.75l4.273 5-1.976 2.312 10.684 12.5c.392.416.802.729 1.23.937.427.208.89.312 1.389.312s.98-.115 1.443-.344c.462-.23.854-.531 1.176-.906.747-.917 1.121-1.98 1.121-3.188 0-1.208-.374-2.228-1.121-3.061l-.004-.002ZM45.458 42.813h-4.809l4.809-5.75v5.75ZM73.77 77.875a8.888 8.888 0 0 1-4.274-1.062 11.063 11.063 0 0 1-3.552-2.782 13.425 13.425 0 0 1-2.378-4.093c-.605-1.584-.907-3.271-.907-5.062 0-1.79.302-3.478.907-5.062.57-1.584 1.363-2.959 2.378-4.125a12.13 12.13 0 0 1 3.552-2.812c1.317-.667 2.742-1 4.274-1 1.531 0 2.973.333 4.326 1a11.78 11.78 0 0 1 3.527 2.812c.997 1.166 1.798 2.541 2.403 4.125.57 1.584.855 3.272.855 5.062 0 1.79-.285 3.478-.855 5.062-.605 1.541-1.406 2.906-2.403 4.093a10.79 10.79 0 0 1-3.527 2.782 9.204 9.204 0 0 1-4.326 1.062ZM99.09 94.56a1.685 1.685 0 0 1-.642.468c-.25.104-.48.156-.694.156-.285 0-.534-.052-.748-.156a1.365 1.365 0 0 1-.536-.468L87.07 83.623l2.725-3.188 9.401 10.937c.32.5.472 1.063.455 1.688-.017.626-.204 1.126-.56 1.5ZM73.983 59.126h-.427c-2.351.084-4.319.928-5.903 2.532-1.584 1.604-2.412 2.469-2.483 2.594l1.442 1.376.722-.782 1.895-1.782c-.071.25-.125.532-.16.844a8.607 8.607 0 0 0-.053.968c0 1.584.472 2.938 1.415 4.062.944 1.124 2.092 1.686 3.446 1.688 1.39 0 2.556-.563 3.5-1.688.943-1.126 1.415-2.48 1.415-4.062 0-.333-.018-.635-.053-.906-.035-.27-.09-.572-.16-.906a15.647 15.647 0 0 1 1.87 1.688c.498.541.748.833.748.876l1.39-1.376c-.143-.125-1.024-.98-2.645-2.562-1.62-1.582-3.605-2.436-5.955-2.562l-.004-.002Zm-.213 9.436c-.855 0-1.576-.354-2.165-1.062-.588-.708-.882-1.541-.882-2.5 0-.959.285-1.781.855-2.468.57-.686 1.265-1.051 2.084-1.094h.427c.82.042 1.514.406 2.084 1.094.57.688.855 1.51.855 2.468a4.438 4.438 0 0 1-1.096 2.5c-.623.708-1.343 1.062-2.162 1.062Z" fill="#fff"/></g><circle cx="96.723" cy="123.477" r="19" fill="#F7D473"/><path d="M93.49 129v-1.218l3.892-3.696c.327-.308.57-.579.728-.812.159-.233.261-.448.308-.644a2.19 2.19 0 0 0 .084-.574c0-.448-.154-.793-.462-1.036-.308-.252-.76-.378-1.358-.378-.476 0-.91.084-1.302.252a2.636 2.636 0 0 0-.994.77l-1.274-.98c.383-.513.896-.91 1.54-1.19.653-.289 1.381-.434 2.184-.434.71 0 1.325.117 1.848.35.532.224.938.546 1.218.966.289.42.434.919.434 1.498 0 .317-.042.635-.126.952a3.356 3.356 0 0 1-.476.98c-.233.345-.574.733-1.022 1.162l-3.346 3.178-.378-.686h5.726V129H93.49Z" fill="#111"/><defs><clipPath id="a"><path fill="#fff" transform="translate(37.497 33.5)" d="M0 0h64v64H0z"/></clipPath></defs></svg>
